Newaita-dark/actions/24/outbox.svg

<svg height="24" viewBox="0 0 24 24" width="24" xmlns="http://www.w3.org/2000/svg"><g fill="#e0e0e0"><path d="m3.96875 2.171875c-1.097656 0-1.984375.886719-1.984375 1.984375v15.875c0 1.101562.886719 1.988281 1.984375 1.988281h15.875c1.101562 0 1.988281-.886719 1.988281-1.988281v-15.875c0-1.097656-.886719-1.984375-1.988281-1.984375h-3.472656v1.984375h2.480468c.550782 0 .992188.441406.992188.992188v13.890624c0 .550782-.441406.992188-.992188.992188h-13.890624c-.550782 0-.992188-.441406-.992188-.992188v-13.890624c0-.550782.441406-.992188.992188-.992188h2.480468v-1.984375zm0 0"/><path d="m14.871094 13.078125c-.546875.007813-.980469.457031-.972656 1 0 1.121094-.871094 1.992187-1.992188 1.992187-1.117188 0-1.988281-.871093-1.988281-1.992187.003906-.265625-.101563-.523437-.289063-.710937s-.445312-.292969-.714844-.289063c-.035156 0-.074218.003906-.113281.007813h-5.824219v1.984374h5.09375c.441407 1.707032 2 2.972657 3.835938 2.972657 1.839844 0 3.394531-1.265625 3.839844-2.972657h5.09375v-1.984374h-5.828125c-.046875-.003907-.09375-.007813-.140625-.007813zm0 0"/><path d="m10.914062 6.648438h1.984376v4.949218c0 .277344-.21875.496094-.496094.496094h-.992188c-.273437 0-.496094-.21875-.496094-.496094zm0 0"/><path d="m15.378906 7.144531h-6.945312l3.472656-4.960937zm0 0"/></g></svg>

<?xml version="1.0" encoding="UTF-8"?>
<svg xmlns="http://www.w3.org/2000/svg" xmlns:xlink="http://www.w3.org/1999/xlink" width="24px" height="24px" viewBox="0 0 24 24" version="1.1">
<g id="surface1">
<path style=" stroke:none;fill-rule:nonzero;fill:rgb(87.843138%,87.843138%,87.843138%);fill-opacity:1;" d="M 3.96875 2.171875 C 2.871094 2.171875 1.984375 3.058594 1.984375 4.15625 L 1.984375 20.03125 C 1.984375 21.132812 2.871094 22.019531 3.96875 22.019531 L 19.84375 22.019531 C 20.945312 22.019531 21.832031 21.132812 21.832031 20.03125 L 21.832031 4.15625 C 21.832031 3.058594 20.945312 2.171875 19.84375 2.171875 L 16.371094 2.171875 L 16.371094 4.15625 L 18.851562 4.15625 C 19.402344 4.15625 19.84375 4.597656 19.84375 5.148438 L 19.84375 19.039062 C 19.84375 19.589844 19.402344 20.03125 18.851562 20.03125 L 4.960938 20.03125 C 4.410156 20.03125 3.96875 19.589844 3.96875 19.039062 L 3.96875 5.148438 C 3.96875 4.597656 4.410156 4.15625 4.960938 4.15625 L 7.441406 4.15625 L 7.441406 2.171875 Z M 3.96875 2.171875 "/>
<path style=" stroke:none;fill-rule:nonzero;fill:rgb(87.843138%,87.843138%,87.843138%);fill-opacity:1;" d="M 14.871094 13.078125 C 14.324219 13.085938 13.890625 13.535156 13.898438 14.078125 C 13.898438 15.199219 13.027344 16.070312 11.90625 16.070312 C 10.789062 16.070312 9.917969 15.199219 9.917969 14.078125 C 9.921875 13.8125 9.816406 13.554688 9.628906 13.367188 C 9.441406 13.179688 9.183594 13.074219 8.914062 13.078125 C 8.878906 13.078125 8.839844 13.082031 8.800781 13.085938 L 2.976562 13.085938 L 2.976562 15.070312 L 8.070312 15.070312 C 8.511719 16.777344 10.070312 18.042969 11.90625 18.042969 C 13.746094 18.042969 15.300781 16.777344 15.746094 15.070312 L 20.839844 15.070312 L 20.839844 13.085938 L 15.011719 13.085938 C 14.964844 13.082031 14.917969 13.078125 14.871094 13.078125 Z M 14.871094 13.078125 "/>
<path style=" stroke:none;fill-rule:nonzero;fill:rgb(87.843138%,87.843138%,87.843138%);fill-opacity:1;" d="M 10.914062 6.648438 L 12.898438 6.648438 L 12.898438 11.597656 C 12.898438 11.875 12.679688 12.09375 12.402344 12.09375 L 11.410156 12.09375 C 11.136719 12.09375 10.914062 11.875 10.914062 11.597656 Z M 10.914062 6.648438 "/>
<path style=" stroke:none;fill-rule:nonzero;fill:rgb(87.843138%,87.843138%,87.843138%);fill-opacity:1;" d="M 15.378906 7.144531 L 8.433594 7.144531 L 11.90625 2.183594 Z M 15.378906 7.144531 "/>
</g>
</svg>
